X: 21702
Q: "Moderate."
M: C|
L: 1/8
K: G
(G>A) |\
(GA) (Bc) d3 d | (ef g)e d2 zd |\
g3 f e3 d | (^cB) (AG) F2 zA |\
d2 d2 (Be) (fg) | d2 ^c2 d2 zd |\
g3 g (gf2) f | (fe) e2 {e}d2 zd |
(dB2) e (cA2) d | (BG2) ^c d4 |\
"^Slow."G3G A2 G4 | B>B c2 HB3 B |\
(Ae dc) (cB) (dB) | (Ae dc) (cB) (dB) |\
(cB) (AB) (cB) cd | (ed) (ef) Hg4 |\
"^Slow."B3 c {B}A4 | G4 z2 |]


